packages/kaspersky-hexa-ui-icons/src/iconsSVGs/16x12/FlagDz.svg

<svg width="16" height="12" viewBox="0 0 16 12" fill="none" xmlns="http://www.w3.org/2000/svg">
<g clip-path="url(#clip0_41813_1969)">
<rect x="0.25" y="0.25" width="15.5" height="11.5" rx="1.75" fill="white" stroke="#F5F5F5" stroke-width="0.5"/>
<mask id="mask0_41813_1969" style="mask-type:luminance" maskUnits="userSpaceOnUse" x="0" y="0" width="16" height="12">
<rect x="0.25" y="0.25" width="15.5" height="11.5" rx="1.75" fill="white" stroke="white" stroke-width="0.5"/>
</mask>
<g mask="url(#mask0_41813_1969)">
<path fill-rule="evenodd" clip-rule="evenodd" d="M0 12H8.38095V0H0V12Z" fill="#048345"/>
<path fill-rule="evenodd" clip-rule="evenodd" d="M9.90479 6.62399L9.00912 7.29442L9.33959 6.19282L8.45556 5.50557L9.55548 5.49517L9.90479 4.39999L10.2541 5.49517L11.354 5.50557L10.47 6.19282L10.8005 7.29442L9.90479 6.62399Z" fill="#E81B42"/>
<path d="M7.85742 2.40039C8.72787 2.40039 9.51946 2.77078 10.1074 3.37598C9.70084 3.17171 9.24152 3.05469 8.75391 3.05469C7.10397 3.05469 5.7666 4.37327 5.7666 6C5.7666 7.62673 7.10397 8.94531 8.75391 8.94531C9.24167 8.94531 9.70075 8.82744 10.1074 8.62305C9.51941 9.22854 8.72811 9.59961 7.85742 9.59961C6.0426 9.59947 4.57129 7.98814 4.57129 6C4.57129 4.01186 6.0426 2.40053 7.85742 2.40039Z" fill="#E81B42"/>
</g>
</g>
<defs>
<clipPath id="clip0_41813_1969">
<rect width="16" height="12" fill="white"/>
</clipPath>
</defs>
</svg>

<svg xmlns="http://www.w3.org/2000/svg" width="16" height="12" fill="none" viewBox="0 0 16 12"><g clip-path="url(#a)"><rect width="16" height="12" fill="#fff" stroke="#f5f5f5" rx="2"/><mask id="b" width="16" height="12" x="0" y="0" maskUnits="userSpaceOnUse" style="mask-type:luminance"><rect width="16" height="12" fill="#fff" stroke="#fff" rx="2"/></mask><g mask="url(#b)"><path fill="#048345" fill-rule="evenodd" d="M0 12h8.381V0H0z" clip-rule="evenodd"/><path fill="#e81b42" fill-rule="evenodd" d="m9.9048 6.624-.8957.6704.3305-1.1016-.884-.6872 1.0999-.0104L9.9048 4.4l.3493 1.0952 1.0999.0104-.884.6872.3305 1.1016z" clip-rule="evenodd"/><path fill="#e81b42" d="M7.8574 2.4004c.8705 0 1.662.3704 2.25.9756a3.006 3.006 0 0 0-1.3535-.3213c-1.65 0-2.9873 1.3186-2.9873 2.9453S7.104 8.9453 8.7539 8.9453a3.005 3.005 0 0 0 1.3535-.3223c-.588.6055-1.3793.9766-2.25.9766C6.0426 9.5995 4.5713 7.9881 4.5713 6s1.4713-3.5995 3.2861-3.5996"/></g></g><defs><clipPath id="a"><path fill="#fff" d="M0 0h16v12H0z"/></clipPath></defs></svg>
